X: 5115
T: Bridget Cruise
R: waltz
M: 3/4
K: Gmajor
(3ABc|B2GA (3B/A/G/ E|E2E3E|AG A2B2|c2A2B/G/A/B/|
d2e2eg|e3d e/d/B|B<A GA/B/ A>G|G4||
|:B/A/G/E/|G2Bd eg|e2d2d/B/A/G/|A2 (3B/A/G/ E E>G|E4G/E/G/A/|
B2e2d/B/A|G2EG/A/ B/A/G/E/|D2E2EG|E4:|

